src/assets/sql.svg

<svg style="background-color:#faf9f6" fill="#00758F" xmlns="http://www.w3.org/2000/svg" viewBox="0 0 50 50" width="48px" height="48px"><path d="M 31.167969 8 C 30.699219 7.988281 30.289063 8.167969 30.078125 8.6875 C 29.71875 9.558594 30.613281 10.410156 30.933594 10.855469 C 31.15625 11.164063 31.445313 11.511719 31.605469 11.859375 C 31.710938 12.089844 31.726563 12.320313 31.816406 12.5625 C 32.039063 13.160156 32.394531 13.839844 32.679688 14.394531 C 32.824219 14.675781 32.984375 14.96875 33.167969 15.21875 C 33.28125 15.371094 33.472656 15.441406 33.503906 15.675781 C 33.316406 15.941406 33.304688 16.351563 33.199219 16.6875 C 32.722656 18.191406 32.902344 20.0625 33.59375 21.171875 C 33.808594 21.515625 34.3125 22.246094 35 21.96875 C 35.601563 21.722656 35.46875 20.960938 35.640625 20.285156 C 35.679688 20.136719 35.65625 20.023438 35.734375 19.921875 L 35.734375 19.953125 C 35.914063 20.320313 36.097656 20.6875 36.28125 21.050781 C 36.691406 21.707031 37.414063 22.390625 38.023438 22.855469 C 38.339844 23.09375 38.589844 23.507813 39 23.648438 L 39 23.617188 L 38.96875 23.617188 C 38.890625 23.492188 38.765625 23.441406 38.664063 23.34375 C 38.425781 23.109375 38.160156 22.816406 37.964844 22.546875 C 37.40625 21.792969 36.914063 20.964844 36.46875 20.105469 C 36.253906 19.695313 36.066406 19.242188 35.886719 18.824219 C 35.816406 18.660156 35.816406 18.417969 35.671875 18.332031 C 35.472656 18.640625 35.183594 18.886719 35.03125 19.25 C 34.789063 19.828125 34.753906 20.535156 34.664063 21.265625 C 34.609375 21.285156 34.632813 21.269531 34.605469 21.296875 C 34.179688 21.191406 34.027344 20.753906 33.871094 20.378906 C 33.472656 19.429688 33.394531 17.898438 33.75 16.808594 C 33.839844 16.523438 34.25 15.632813 34.085938 15.371094 C 34.007813 15.109375 33.742188 14.960938 33.597656 14.761719 C 33.414063 14.515625 33.234375 14.191406 33.109375 13.90625 C 32.78125 13.164063 32.472656 12.304688 32.125 11.554688 C 31.960938 11.195313 31.683594 10.835938 31.453125 10.515625 C 31.199219 10.164063 30.917969 9.90625 30.71875 9.476563 C 30.652344 9.328125 30.554688 9.085938 30.660156 8.929688 C 30.691406 8.824219 30.738281 8.78125 30.84375 8.746094 C 31.019531 8.609375 31.511719 8.789063 31.699219 8.867188 C 32.1875 9.070313 32.597656 9.265625 33.011719 9.539063 C 33.210938 9.671875 33.410156 9.925781 33.652344 10 L 33.925781 10 C 34.359375 10.097656 34.839844 10.027344 35.238281 10.152344 C 35.949219 10.367188 36.585938 10.703125 37.160156 11.066406 C 38.921875 12.175781 40.363281 13.757813 41.34375 15.644531 C 41.503906 15.949219 41.574219 16.242188 41.714844 16.5625 C 41.992188 17.210938 42.347656 17.882813 42.628906 18.515625 C 42.90625 19.152344 43.179688 19.789063 43.574219 20.316406 C 43.78125 20.59375 44.585938 20.746094 44.949219 20.898438 C 45.203125 21.007813 45.625 21.121094 45.863281 21.265625 C 46.328125 21.542969 46.773438 21.875 47.207031 22.183594 C 47.425781 22.335938 48.089844 22.667969 48.125 22.945313 C 47.050781 22.917969 46.230469 23.015625 45.53125 23.3125 C 45.332031 23.398438 45.011719 23.398438 44.980469 23.648438 C 45.085938 23.761719 45.105469 23.933594 45.191406 24.074219 C 45.359375 24.34375 45.640625 24.707031 45.894531 24.898438 C 46.171875 25.105469 46.453125 25.328125 46.75 25.511719 C 47.273438 25.828125 47.859375 26.011719 48.367188 26.332031 C 48.664063 26.523438 48.964844 26.761719 49.253906 26.972656 C 49.398438 27.082031 49.492188 27.246094 49.679688 27.3125 L 49.679688 27.28125 C 49.582031 27.15625 49.558594 26.984375 49.46875 26.855469 L 49.066406 26.453125 C 48.679688 25.941406 48.1875 25.488281 47.664063 25.113281 C 47.246094 24.8125 46.3125 24.40625 46.140625 23.921875 L 46.109375 23.890625 C 46.402344 23.859375 46.75 23.75 47.023438 23.675781 C 47.484375 23.554688 47.890625 23.585938 48.363281 23.464844 C 48.578125 23.402344 48.792969 23.339844 49.007813 23.28125 L 49.007813 23.15625 C 48.769531 22.914063 48.597656 22.585938 48.335938 22.363281 C 47.652344 21.78125 46.90625 21.199219 46.136719 20.714844 C 45.710938 20.445313 45.183594 20.269531 44.734375 20.042969 C 44.582031 19.964844 44.316406 19.925781 44.214844 19.796875 C 43.976563 19.496094 43.847656 19.113281 43.664063 18.761719 C 43.28125 18.023438 42.90625 17.21875 42.566406 16.441406 C 42.335938 15.914063 42.183594 15.390625 41.894531 14.914063 C 40.507813 12.636719 39.015625 11.257813 36.703125 9.90625 C 36.210938 9.617188 35.621094 9.507813 34.996094 9.359375 C 34.65625 9.335938 34.324219 9.316406 33.984375 9.296875 C 33.78125 9.210938 33.566406 8.960938 33.375 8.835938 C 32.894531 8.535156 31.949219 8.011719 31.167969 8 Z M 34.476563 11.3125 C 34.253906 11.308594 34.09375 11.339844 33.925781 11.375 L 33.925781 11.40625 L 33.957031 11.40625 C 34.0625 11.625 34.253906 11.765625 34.386719 11.953125 C 34.488281 12.167969 34.585938 12.382813 34.6875 12.597656 L 34.71875 12.566406 C 34.90625 12.433594 34.996094 12.21875 34.996094 11.894531 C 34.917969 11.816406 34.90625 11.714844 34.84375 11.621094 C 34.753906 11.492188 34.585938 11.421875 34.476563 11.3125 Z M 1.867188 23.996094 C 1.566406 24.007813 1.238281 24.066406 0.882813 24.179688 C 0.289063 24.359375 -0.00390625 24.714844 -0.00390625 25.4375 L -0.00390625 33 L 2 33 L 2 25.621094 L 4.777344 31.929688 C 5.121094 32.714844 5.589844 32.996094 6.507813 32.996094 C 7.429688 32.996094 7.878906 32.714844 8.222656 31.929688 L 11 25.78125 L 11 33 L 13 33 L 13 25.4375 C 13 24.714844 12.710938 24.359375 12.113281 24.179688 C 10.691406 23.730469 9.734375 24.117188 9.304688 25.089844 L 6.453125 31.503906 L 3.695313 25.089844 C 3.382813 24.359375 2.757813 23.960938 1.867188 23.996094 Z M 26.246094 24 C 25.457031 24 23 24.09375 23 26 L 23 27.234375 C 23 28.109375 23.769531 28.824219 25.4375 29 C 25.625 29.011719 25.8125 29.027344 26 29.027344 C 26 29.027344 27.945313 28.988281 28 29 C 29.125 29 29 29.875 29 30 L 29 31 C 29 31.136719 28.96875 32 27.988281 32 L 23 32 L 23 33 L 28.007813 33 C 28.664063 33 29.300781 32.863281 29.808594 32.625 C 30.652344 32.238281 31 31.714844 31 31.027344 L 31 29.597656 C 31 28.0625 29.09375 28 28 28 L 26 28 C 25.214844 28 25.09375 27.523438 25 27 L 25 26 C 25.09375 25.601563 25.269531 25.0625 25.964844 25 L 31 25 L 31 24 Z M 33.980469 24 C 32.503906 24.203125 31.984375 24.9375 31.984375 26 L 31.984375 31 C 31.984375 31.972656 32.527344 32.558594 33.644531 32.863281 C 34.019531 32.96875 34.359375 33.011719 34.679688 33.011719 L 36.90625 33 L 38.214844 33 L 39.328125 34 L 41.578125 34 L 40.03125 32.605469 C 40.757813 32.304688 40.984375 31.84375 40.984375 30.980469 L 40.984375 26 C 40.984375 24.9375 40.292969 24.203125 38.816406 24 Z M 42 24 L 42 30.957031 C 42 32.164063 42.683594 32.84375 44.492188 32.980469 C 44.660156 32.988281 44.832031 33 45 33 L 50 33 L 50 32 L 45.378906 32 C 44.347656 32 44 31.566406 44 30.949219 L 44 24 Z M 35.171875 25 L 37.746094 25 C 38.425781 25 38.882813 25.546875 38.984375 26 C 38.984375 26 39 30.65625 39 31 C 39 31.34375 38.808594 31.5 38.808594 31.5 L 38.265625 31 L 36 31 L 37.113281 32 L 35.171875 32 C 34.476563 32 34.085938 31.484375 33.984375 31 L 33.984375 26.101563 C 33.984375 25.570313 34.390625 25 35.171875 25 Z M 14 27 C 14.039063 27.039063 14 31.261719 14 31.34375 C 14.015625 32.21875 15.125 32.984375 16.863281 33 L 20 33 L 20 33.066406 C 20 33.253906 20.136719 33.878906 19 34 C 18.988281 34 14.011719 34 14 34 L 14 35 L 19.214844 35 C 20.097656 34.972656 22.011719 34.773438 22 33.242188 C 22 33.214844 22.007813 27 22 27 L 20 27 L 20 32 C 19.96875 32 17.523438 32.007813 17.03125 32 C 16.066406 31.984375 15.984375 31.433594 16 31.222656 L 16 27 Z"/></svg>

<svg xmlns="http://www.w3.org/2000/svg" x="0px" y="0px" width="48" height="48" viewBox="0,0,256,256"><g transform="translate(40.96,40.96) scale(0.68,0.68)"><g fill="#faf9f6" fill-rule="nonzero" stroke="none" stroke-width="1" stroke-linecap="butt" stroke-linejoin="miter" stroke-miterlimit="10" stroke-dasharray="" stroke-dashoffset="0" font-family="none" font-weight="none" font-size="none" text-anchor="none" style="mix-blend-mode: normal"><path d="M-60.23529,316.23529v-376.47059h376.47059v376.47059z" id="bgRectangle"></path></g><g fill="#00758f" fill-rule="nonzero" stroke="none" stroke-width="1" stroke-linecap="butt" stroke-linejoin="miter" stroke-miterlimit="10" stroke-dasharray="" stroke-dashoffset="0" font-family="none" font-weight="none" font-size="none" text-anchor="none" style="mix-blend-mode: normal"><g transform="scale(5.12,5.12)"><path d="M31.16797,8c-0.46875,-0.01172 -0.87891,0.16797 -1.08984,0.6875c-0.35937,0.87109 0.53516,1.72266 0.85547,2.16797c0.22266,0.30859 0.51172,0.65625 0.67188,1.00391c0.10547,0.23047 0.12109,0.46094 0.21094,0.70313c0.22266,0.59766 0.57813,1.27734 0.86328,1.83203c0.14453,0.28125 0.30469,0.57422 0.48828,0.82422c0.11328,0.15234 0.30469,0.22266 0.33594,0.45703c-0.1875,0.26563 -0.19922,0.67578 -0.30469,1.01172c-0.47656,1.50391 -0.29687,3.375 0.39453,4.48438c0.21484,0.34375 0.71875,1.07422 1.40625,0.79688c0.60156,-0.24609 0.46875,-1.00781 0.64063,-1.68359c0.03906,-0.14844 0.01563,-0.26172 0.09375,-0.36328v0.03125c0.17969,0.36719 0.36328,0.73438 0.54688,1.09766c0.41016,0.65625 1.13281,1.33984 1.74219,1.80469c0.31641,0.23828 0.56641,0.65234 0.97656,0.79297v-0.03125h-0.03125c-0.07812,-0.125 -0.20312,-0.17578 -0.30469,-0.27344c-0.23828,-0.23437 -0.50391,-0.52734 -0.69922,-0.79687c-0.55859,-0.75391 -1.05078,-1.58203 -1.49609,-2.44141c-0.21484,-0.41016 -0.40234,-0.86328 -0.58203,-1.28125c-0.07031,-0.16406 -0.07031,-0.40625 -0.21484,-0.49219c-0.19922,0.30859 -0.48828,0.55469 -0.64062,0.91797c-0.24219,0.57813 -0.27734,1.28516 -0.36719,2.01563c-0.05469,0.01953 -0.03125,0.00391 -0.05859,0.03125c-0.42578,-0.10547 -0.57812,-0.54297 -0.73437,-0.91797c-0.39844,-0.94922 -0.47656,-2.48047 -0.12109,-3.57031c0.08984,-0.28516 0.5,-1.17578 0.33594,-1.4375c-0.07812,-0.26172 -0.34375,-0.41016 -0.48828,-0.60937c-0.18359,-0.24609 -0.36328,-0.57031 -0.48828,-0.85547c-0.32812,-0.74219 -0.63672,-1.60156 -0.98437,-2.35156c-0.16406,-0.35937 -0.44141,-0.71875 -0.67187,-1.03906c-0.25391,-0.35156 -0.53516,-0.60937 -0.73437,-1.03906c-0.06641,-0.14844 -0.16406,-0.39062 -0.05859,-0.54687c0.03125,-0.10547 0.07813,-0.14844 0.18359,-0.18359c0.17578,-0.13672 0.66797,0.04297 0.85547,0.12109c0.48828,0.20313 0.89844,0.39844 1.3125,0.67188c0.19922,0.13281 0.39844,0.38672 0.64063,0.46094h0.27344c0.43359,0.09766 0.91406,0.02734 1.3125,0.15234c0.71094,0.21484 1.34766,0.55078 1.92188,0.91406c1.76172,1.10938 3.20313,2.69141 4.18359,4.57813c0.16016,0.30469 0.23047,0.59766 0.37109,0.91797c0.27734,0.64844 0.63281,1.32031 0.91406,1.95313c0.27734,0.63672 0.55078,1.27344 0.94531,1.80078c0.20703,0.27734 1.01172,0.42969 1.375,0.58203c0.25391,0.10938 0.67578,0.22266 0.91406,0.36719c0.46484,0.27734 0.91016,0.60938 1.34375,0.91797c0.21875,0.15234 0.88281,0.48438 0.91797,0.76172c-1.07422,-0.02734 -1.89453,0.07031 -2.59375,0.36719c-0.19922,0.08594 -0.51953,0.08594 -0.55078,0.33594c0.10547,0.11328 0.125,0.28516 0.21094,0.42578c0.16797,0.26953 0.44922,0.63281 0.70313,0.82422c0.27734,0.20703 0.55859,0.42969 0.85547,0.61328c0.52344,0.31641 1.10938,0.5 1.61719,0.82031c0.29688,0.19141 0.59766,0.42969 0.88672,0.64063c0.14453,0.10938 0.23828,0.27344 0.42578,0.33984v-0.03125c-0.09766,-0.125 -0.12109,-0.29687 -0.21094,-0.42578l-0.40234,-0.40234c-0.38672,-0.51172 -0.87891,-0.96484 -1.40234,-1.33984c-0.41797,-0.30078 -1.35156,-0.70703 -1.52344,-1.19141l-0.03125,-0.03125c0.29297,-0.03125 0.64063,-0.14062 0.91406,-0.21484c0.46094,-0.12109 0.86719,-0.08984 1.33984,-0.21094c0.21484,-0.0625 0.42969,-0.125 0.64453,-0.18359v-0.125c-0.23828,-0.24219 -0.41016,-0.57031 -0.67187,-0.79297c-0.68359,-0.58203 -1.42969,-1.16406 -2.19922,-1.64844c-0.42578,-0.26953 -0.95312,-0.44531 -1.40234,-0.67187c-0.15234,-0.07812 -0.41797,-0.11719 -0.51953,-0.24609c-0.23828,-0.30078 -0.36719,-0.68359 -0.55078,-1.03516c-0.38281,-0.73828 -0.75781,-1.54297 -1.09766,-2.32031c-0.23047,-0.52734 -0.38281,-1.05078 -0.67187,-1.52734c-1.38672,-2.27734 -2.87891,-3.65625 -5.19141,-5.00781c-0.49219,-0.28906 -1.08203,-0.39844 -1.70703,-0.54687c-0.33984,-0.02344 -0.67187,-0.04297 -1.01172,-0.0625c-0.20312,-0.08594 -0.41797,-0.33594 -0.60937,-0.46094c-0.48047,-0.30078 -1.42578,-0.82422 -2.20703,-0.83594zM34.47656,11.3125c-0.22266,-0.00391 -0.38281,0.02734 -0.55078,0.0625v0.03125h0.03125c0.10547,0.21875 0.29688,0.35938 0.42969,0.54688c0.10156,0.21484 0.19922,0.42969 0.30078,0.64453l0.03125,-0.03125c0.1875,-0.13281 0.27734,-0.34766 0.27734,-0.67187c-0.07812,-0.07812 -0.08984,-0.17969 -0.15234,-0.27344c-0.08984,-0.12891 -0.25781,-0.19922 -0.36719,-0.30859zM1.86719,23.99609c-0.30078,0.01172 -0.62891,0.07031 -0.98438,0.18359c-0.59375,0.17969 -0.88672,0.53516 -0.88672,1.25781v7.5625h2.00391v-7.37891l2.77734,6.30859c0.34375,0.78516 0.8125,1.06641 1.73047,1.06641c0.92188,0 1.37109,-0.28125 1.71484,-1.06641l2.77734,-6.14844v7.21875h2v-7.5625c0,-0.72266 -0.28906,-1.07812 -0.88672,-1.25781c-1.42187,-0.44922 -2.37891,-0.0625 -2.80859,0.91016l-2.85156,6.41406l-2.75781,-6.41406c-0.3125,-0.73047 -0.9375,-1.12891 -1.82812,-1.09375zM26.24609,24c-0.78906,0 -3.24609,0.09375 -3.24609,2v1.23438c0,0.875 0.76953,1.58984 2.4375,1.76563c0.1875,0.01172 0.375,0.02734 0.5625,0.02734c0,0 1.94531,-0.03906 2,-0.02734c1.125,0 1,0.875 1,1v1c0,0.13672 -0.03125,1 -1.01172,1h-4.98828v1h5.00781c0.65625,0 1.29297,-0.13672 1.80078,-0.375c0.84375,-0.38672 1.19141,-0.91016 1.19141,-1.59766v-1.42969c0,-1.53516 -1.90625,-1.59766 -3,-1.59766h-2c-0.78516,0 -0.90625,-0.47656 -1,-1v-1c0.09375,-0.39844 0.26953,-0.9375 0.96484,-1h5.03516v-1zM33.98047,24c-1.47656,0.20313 -1.99609,0.9375 -1.99609,2v5c0,0.97266 0.54297,1.55859 1.66016,1.86328c0.375,0.10547 0.71484,0.14844 1.03516,0.14844l2.22656,-0.01172h1.30859l1.11328,1h2.25l-1.54687,-1.39453c0.72656,-0.30078 0.95313,-0.76172 0.95313,-1.625v-4.98047c0,-1.0625 -0.69141,-1.79687 -2.16797,-2zM42,24v6.95703c0,1.20703 0.68359,1.88672 2.49219,2.02344c0.16797,0.00781 0.33984,0.01953 0.50781,0.01953h5v-1h-4.62109c-1.03125,0 -1.37891,-0.43359 -1.37891,-1.05078v-6.94922zM35.17188,25h2.57422c0.67969,0 1.13672,0.54688 1.23828,1c0,0 0.01563,4.65625 0.01563,5c0,0.34375 -0.19141,0.5 -0.19141,0.5l-0.54297,-0.5h-2.26562l1.11328,1h-1.94141c-0.69531,0 -1.08594,-0.51562 -1.1875,-1v-4.89844c0,-0.53125 0.40625,-1.10156 1.1875,-1.10156zM14,27c0.03906,0.03906 0,4.26172 0,4.34375c0.01563,0.875 1.125,1.64063 2.86328,1.65625h3.13672v0.06641c0,0.1875 0.13672,0.8125 -1,0.93359c-0.01172,0 -4.98828,0 -5,0v1h5.21484c0.88281,-0.02734 2.79688,-0.22656 2.78516,-1.75781c0,-0.02734 0.00781,-6.24219 0,-6.24219h-2v5c-0.03125,0 -2.47656,0.00781 -2.96875,0c-0.96484,-0.01562 -1.04687,-0.56641 -1.03125,-0.77734v-4.22266z"></path></g></g></g></svg>
